src/static/logos/dyndns.svg

<svg width="257" height="256" xmlns="http://www.w3.org/2000/svg" preserveAspectRatio="xMidYMid"><defs><linearGradient x1="5.175%" y1="30.083%" x2="135.025%" y2="114.013%" id="a"><stop offset="0%"/><stop stop-color="#E6E7E8" offset="100%"/></linearGradient><linearGradient x1="9.889%" y1="8.205%" x2="104.104%" y2="64.487%" id="b"><stop stop-color="#939598" offset="0%"/><stop offset="100%"/></linearGradient><linearGradient x1="42.136%" y1="42.363%" x2="85.222%" y2="82.248%" id="c"><stop stop-color="#FEFAD8" offset="0%"/><stop stop-color="#FCEE21" offset="100%"/></linearGradient></defs><path d="M89.6 219.7c16-.7 31.1-4.3 45-10.3-53.7-15.2-93-64.6-93-123.1 0-16.3 3.1-31.9 8.6-46.2C37.9 44 26.9 50.4 19.3 60.2 7.1 79.8 0 103 0 127.8c0 24.7 7 47.7 19.1 67.3 10.8 14.8 47.6 25.6 70.5 24.6z" fill="url(#a)"/><path d="M210.3 137.8c7.3-15.3 11.4-32.2 11.4-50.1 0-24.7-10.5-55.4-26.7-68.6C175.5 7 152.5 0 127.8 0c-46 0-87 24.3-108.8 60.7 19.6-12.1 42.6-19.2 67.3-19.2 59.7 0 109.9 41 124 96.3z" fill="url(#b)"/><path d="M195 19c13 18.7 19.5 42.3 19.5 67 0 70.7-57.3 128.1-128.1 128.1-24.7 0-47.8-6.9-67.3-19.1C41.5 231.6 82 255.7 128 255.7c70.7 0 128.1-57.3 128.1-128.1-.1-46-24.7-88-61.1-108.6z" fill="url(#c)"/></svg>

<?xml version="1.0" encoding="UTF-8" standalone="no"?>
<svg width="257px" height="256px" viewBox="0 0 257 256" version="1.1" xmlns="http://www.w3.org/2000/svg" xmlns:xlink="http://www.w3.org/1999/xlink" preserveAspectRatio="xMidYMid">
    <defs>
        <linearGradient x1="5.17548291%" y1="30.0829049%" x2="135.024889%" y2="114.013331%" id="linearGradient-1">
            <stop stop-color="#000000" offset="0%"></stop>
            <stop stop-color="#E6E7E8" offset="100%"></stop>
        </linearGradient>
        <linearGradient x1="9.88919586%" y1="8.20471698%" x2="104.104391%" y2="64.4865022%" id="linearGradient-2">
            <stop stop-color="#939598" offset="0%"></stop>
            <stop stop-color="#000000" offset="100%"></stop>
        </linearGradient>
        <linearGradient x1="42.1357806%" y1="42.3629066%" x2="85.2219831%" y2="82.2479932%" id="linearGradient-3">
            <stop stop-color="#FEFAD8" offset="0%"></stop>
            <stop stop-color="#FCEE21" offset="100%"></stop>
        </linearGradient>
    </defs>
	<g>
		<path d="M89.6,219.7 C105.6,219 120.7,215.4 134.6,209.4 C80.9,194.2 41.6,144.8 41.6,86.3 C41.6,70 44.7,54.4 50.2,40.1 C37.9,44 26.9,50.4 19.3,60.2 C7.1,79.8 0,103 0,127.8 C0,152.5 7,175.5 19.1,195.1 C29.9,209.9 66.7,220.7 89.6,219.7 L89.6,219.7 Z" fill="url(#linearGradient-1)"></path>
		<path d="M210.3,137.8 C217.6,122.5 221.7,105.6 221.7,87.7 C221.7,63 211.2,32.3 195,19.1 C175.5,7 152.5,0 127.8,0 C81.8,0 40.8,24.3 19,60.7 C38.6,48.6 61.6,41.5 86.3,41.5 C146,41.5 196.2,82.5 210.3,137.8 L210.3,137.8 Z" fill="url(#linearGradient-2)"></path>
		<path d="M195,19 C208,37.7 214.5,61.3 214.5,86 C214.5,156.7 157.2,214.1 86.4,214.1 C61.7,214.1 38.6,207.2 19.1,195 C41.5,231.6 82,255.7 128,255.7 C198.7,255.7 256.1,198.4 256.1,127.6 C256,81.6 231.4,39.6 195,19 L195,19 Z" fill="url(#linearGradient-3)"></path>
	</g>
</svg>
